T: Mulqueen's
M: 4/4
L: 1/8
K: Dmaj
|:F2 EG FD D2|FDAD FD D2|F2 EG FD D2|(3FGA Bc dBAG|
F2 EG FD D2|FDAD FD D2|F2 EG FD D2|(3FGA Bc d2 cd||
|:e2 ed e3d |cdef gfed|e2 ed e3d|cABc d2 cd|
e2 ed e3d|cdef g2 fg|af3 ge3|dfed cAGE||
